!!!!SEGMENT: pl-wru--50044-muz--013_buchner-philipp-friedrich--plectrum-musicum-sonata-xiii.krn
!!!cenid: 16xx:1814
!!!COM: Buchner, Philipp Friedrich
!!!COM-rismID: pe30013776
!!!CDT:
!!!CNT:
!!!GTL: Plectrum musicum
!!!OTL: Sonata XIII
!!!OMV: 013
!!!PDT: 1662
!!!AGN:
!!!SMS-siglum: PL-WRu
!!!SMS-shelfmark: 50044 Muz.
!!!SMS-shelfwork: 001-013 G
!!!SMS-variant:
!!!SMS-altvar:
!!!NIFC-rismSourceID: 990007465
!!!NIFC-rismChildID: 990007465
!!!NIFC-islandoraID: none
!!!URL-pdf-islandora:
!!!URL-scan: https://www.bibliotekacyfrowa.pl/dlibra/doccontent?id=116 @EN{Scan on Digital Library of University of Wroclaw} @PL{Skany w portalu Biblioteka Cyfrowa Uniwersytetu Wrocławskiego}
!!!ONB-nifc: UWAGA: Violino I: s. 12-13, Violino II: s. 26-27, Fagotto: s. 57, Bassus: s. 73, Bassus continuus: s. 88
!!!AIN: 1 fagot 2 violn
!!!key: a
**kern	**fba	**kern	**fba	**kern	**kern	**kern
*part5	*part5	*part4	*part4	*part3	*part2	*part1
*staff5	*	*staff4	*	*staff3	*staff2	*staff1
*I"BASSUS CONTINUUS	*	*I"BASSUS	*	*I"FAGOTTO	*I"VIOLINO II.	*I"VIOLINO I.
*I'bc	*	*I'b	*	*I'fag	*I'vl II	*I'vl I
*	*	*	*	*ICww	*ICstr	*ICstr
*	*	*	*	*Ifagot	*Ivioln	*Ivioln
*IGcont	*	*IGcont	*	*	*	*
*clefF4	*	*clefF4	*	*clefF4	*clefG2	*clefG2
*k[]	*	*k[]	*	*k[]	*k[]	*k[]
*a:	*	*a:	*	*a:	*a:	*a:
*M2/2	*	*M2/2	*	*M2/2	*M2/2	*M2/2
*met(C|)	*	*met(C|)	*	*met(C|)	*met(C|)	*met(C|)
=1-	=1-	=1-	=1-	=1-	=1-	=1-
!	!	!	!	!	!LO:TX:b:t=Allegro.	!LO:TX:b:t=Allegro.
2AA/	.	2AA/	.	00r	1r	8ee\
.	.	.	.	.	.	8a/
.	.	.	.	.	.	8ee\
.	.	.	.	.	.	8gg\
4BB/	6	4BB/	6	.	.	8.gg\
.	.	.	.	.	.	16ff\
4C/	.	4C/	.	.	.	8.ee\
!	!	!	!	!	!	!LO:TX:t=P:problem:kreska pseudotaktowa
.	.	.	.	.	.	16gg\
=2-	=2-	=2-	=2-	=2-	=2-	=2-
4D/	.	4D/	.	.	2r	8.ff\
.	.	.	.	.	.	16ee\
!LO:TX:b:t=Allegro.	!	!LO:TX:b:t=Allegro.	!	!	!	!
4GG/	.	4GG/	.	.	.	8.dd\
.	.	.	.	.	.	16ee\
!LO:TX:t=P:problem:kreska pseudotaktowa	!	!LO:TX:t=P:problem:kreska pseudotaktowa	!	!	!	!
2AA/	.	2AA/	.	.	8ee\	4cc\
.	.	.	.	.	8a/	.
!	!	!	!	!	!	!LO:TX:t=P:problem:kreska pseudotaktowa
.	.	.	.	.	8ee\	4r
!	!	!	!	!	!LO:TX:t=P:problem:kreska pseudotaktowa	!
.	.	.	.	.	8gg\	.
=3-	=3-	=3-	=3-	=3-	=3-	=3-
2E\	6	2E\	6	.	8.gg\	8r
.	.	.	.	.	.	8cc\
.	.	.	.	.	16ff\	.
.	.	.	.	.	8.ee\	8.cc\
.	.	.	.	.	16gg\	32b/
.	.	.	.	.	.	32cc\
4F\	.	4F\	.	.	8.ff\	8dd\
.	.	.	.	.	.	8dd\
.	.	.	.	.	16ee\	.
4G\	.	4G\	.	.	8.dd\	8.dd\
!	!	!	!	!	!LO:TX:t=P:problem:kreska pseudotaktowa	!
.	.	.	.	.	16ee\	32cc\
.	.	.	.	.	.	32dd\
=4-	=4-	=4-	=4-	=4-	=4-	=4-
4C/	.	4C/	.	.	8cc\	4ee\
.	.	.	.	.	8g/	.
4BB/	.	4BB/	.	.	8.g/	4r
.	.	.	.	.	32f/	.
.	.	.	.	.	32g/	.
!	!	!	!	!	!	!LO:TX:t=P:problem:kreska pseudotaktowa
4AA/	7	4AA/	7	.	8a/	2r
.	.	.	.	.	8a/	.
4D/	#	4D/	#	.	8.a/	.
.	.	.	.	.	32g/	.
!	!	!	!	!	!LO:TX:t=P:problem:kreska pseudotaktowa	!
.	.	.	.	.	32a/	.
=5-	=5-	=5-	=5-	=5-	=5-	=5-
2GG/	.	2GG/	.	0r	4b/	8dd\
.	.	.	.	.	.	8g/
.	.	.	.	.	4r	8dd\
.	.	.	.	.	.	8gg\
!LO:TX:t=P:problem:kreska pseudotaktowa	!	!LO:TX:t=P:problem:kreska pseudotaktowa	!	!	!	!
2C/	.	2C/	.	.	8gg\	8.ee\
.	.	.	.	.	8cc\	.
.	.	.	.	.	.	16dd\
!	!	!	!	!	!	!LO:TX:t=P:problem:kreska pseudotaktowa
.	.	.	.	.	8gg\	4cc\
!	!	!	!	!	!LO:TX:t=P:problem:kreska pseudotaktowa	!
.	.	.	.	.	8ccc\	.
=6-	=6-	=6-	=6-	=6-	=6-	=6-
2F\	.	2F\	.	.	8.aa\	8r
.	.	.	.	.	.	8ccc\
.	.	.	.	.	16gg\	.
.	.	.	.	.	4ff\	8aa\
.	.	.	.	.	.	8ff\
*	*	*	*	*	*	*custos:aa
!	!	!	!	!	!	!LO:LB:g=original
2D/	5:6:#	2D/	5:6:#	.	8r	8r
.	.	.	.	.	8ff\	8aa\
.	.	.	.	.	8dd\	8ff\
!	!	!	!	!	!	!LO:TX:t=P:problem:kreska pseudotaktowa
.	.	.	.	.	8b/	8dd\
*	*	*	*	*	*custos:g#	*
!	!	!	!	!	!LO:LB:g=original	!
=7-	=7-	=7-	=7-	=7-	=7-	=7-
2E\	4#r	2E\	4#r	2r	8g#X/	8b/
.	.	.	.	.	4a/	8a/
.	.	.	.	.	.	4b/
.	.	.	.	.	8g#X/	.
!LO:TX:t=P:problem:kreska pseudotaktowa	!	!LO:TX:t=P:problem:kreska pseudotaktowa	!	!LO:TX:b:t=Allegro.	!	!LO:TX:t=P:problem:kreska pseudotaktowa
2AA/	-	2AA/	-	8E\	4a/	4a/
.	.	.	.	8AA/	.	.
!	!	!	!	!	!LO:TX:t=P:problem:kreska pseudotaktowa	!
.	.	.	.	8E\	4r	4r
!	!	!	!	!LO:TX:t=P:problem:kreska pseudotaktowa	!	!
.	.	.	.	8A\	.	.
=8-	=8-	=8-	=8-	=8-	=8-	=8-
2E\	-	2E\	-	8.G\	8r	1r
.	.	.	.	.	8cc\	.
.	.	.	.	16F\	.	.
.	.	.	.	8.E\	8.cc\	.
.	.	.	.	16G\	32b/	.
.	.	.	.	.	32cc\	.
2D/	7:6	2D/	7:6	8.F\	8dd\	.
.	.	.	.	.	8dd\	.
.	.	.	.	16E\	.	.
.	.	.	.	8.D/	8.dd\	.
!	!	!	!	!LO:TX:t=P:problem:kreska pseudotaktowa	!	!
.	.	.	.	16E\	32cc\	.
!	!	!	!	!	!LO:TX:t=P:problem:kreska pseudotaktowa	!
.	.	.	.	.	32dd\	.
=9-	=9-	=9-	=9-	=9-	=9-	=9-
2C/	.	2C/	.	8C/	4ee\	8gg\
.	.	.	.	8C/	.	8cc\
.	.	.	.	8.C/	4r	8gg\
.	.	.	.	.	.	8ccc\
.	.	.	.	32BB/	.	.
.	.	.	.	32C/	.	.
2D/	5:6	2D/	5:6	8D/	8r	8.aa\
.	.	.	.	8D/	8ff\	.
.	.	.	.	.	.	16gg\
!	!	!	!	!	!	!LO:TX:t=P:problem:kreska pseudotaktowa
.	.	.	.	8.D/	8dd\	4ff\
!	!	!	!	!	!LO:TX:t=P:problem:kreska pseudotaktowa	!
.	.	.	.	.	8b/	.
.	.	.	.	32C/	.	.
!	!	!	!	!LO:TX:t=P:problem:kreska pseudotaktowa	!	!
.	.	.	.	32D/	.	.
=10-	=10-	=10-	=10-	=10-	=10-	=10-
2E\	-	2E\	-	8E\	8gny/	2r
.	.	.	.	8G\	8b/	.
.	.	.	.	8E\	8.b/	.
.	.	.	.	8C/	.	.
.	.	.	.	.	32a/	.
.	.	.	.	.	32b/	.
2AA/	5:6	2AA/	5:6	8AA/	8cc\	8r
.	.	.	.	8c\	8cc\	8ee\
.	.	.	.	8A\	8.cc\	8cc\
!	!	!	!	!LO:TX:t=P:problem:kreska pseudotaktowa	!	!LO:TX:t=P:problem:kreska pseudotaktowa
.	.	.	.	8F\	.	8a/
.	.	.	.	.	32b/	.
!	!	!	!	!	!LO:TX:t=P:problem:kreska pseudotaktowa	!
.	.	.	.	.	32cc\	.
=11-	=11-	=11-	=11-	=11-	=11-	=11-
4D/	-	4D/	-	4D/	8dd\	8f/
.	.	.	.	.	8dd\	8ff\
4GG/	.	4GG/	.	4r	8.dd\	8dd\
.	.	.	.	.	.	8b\
.	.	.	.	.	32cc\	.
.	.	.	.	.	32dd\	.
!LO:TX:t=P:problem:kreska pseudotaktowa	!	!LO:TX:t=P:problem:kreska pseudotaktowa	!	!	!	!
2C/	.	2C/	.	8G\	4ee\	8g/
.	.	.	.	8C/	.	8gg\
.	.	.	.	8G\	4r	8.gg\
.	.	.	.	8c\	.	.
.	.	.	.	.	.	32ff\
!	!	!	!	!	!	!LO:TX:t=P:problem:kreska pseudotaktowa
.	.	.	.	.	.	32gg\
*	*	*	*	*custos:A	*custos:ff	*
!	!	!	!	!LO:LB:g=original	!LO:LB:g=original	!
=12-	=12-	=12-	=12-	=12-	=12-	=12-
2FF/	.	2FF/	.	8.A\	8ff\	4aa\
.	.	.	.	.	8cc\	.
.	.	.	.	16G\	.	.
.	.	.	.	4F\	8ff\	4r
.	.	.	.	.	8aa\	.
4C/	.	4C/	.	8r	8.gg\	8r
*	*	*	*	*	*	*custos:cc
!	!	!	!	!	!	!LO:LB:g=original
.	.	.	.	8E\	.	8cc\
.	.	.	.	.	16ff\	.
4E\	6	4E\	6	8.E\	8.ee\	8.cc\
!	!	!	!	!	!LO:TX:t=P:problem:kreska pseudotaktowa	!
.	.	.	.	32D/	16gg\	32b/
!	!	!	!	!LO:TX:t=P:problem:kreska pseudotaktowa	!	!LO:TX:t=P:problem:kreska pseudotaktowa
.	.	.	.	32E\	.	32cc\
=13-	=13-	=13-	=13-	=13-	=13-	=13-
4F\	.	4F\	.	4F\	8.ff\	8dd\
.	.	.	.	.	.	8dd\
.	.	.	.	.	16dd\	.
4G\	.	4G\	.	4r	8.dd\	8.dd\
.	.	.	.	.	16ee\	32cc\
.	.	.	.	.	.	32dd\
2C/	.	2C/	.	8r	8cc\	4ee\
.	.	.	.	8G\	8gg\	.
!	!	!	!	!	!	!LO:TX:t=P:problem:kreska pseudotaktowa
.	.	.	.	8E\	8.gg\	4r
.	.	.	.	8C/	.	.
.	.	.	.	.	32ff\	.
!	!	!	!	!	!LO:TX:t=P:problem:kreska pseudotaktowa	!
.	.	.	.	.	32gg\	.
=14-	=14-	=14-	=14-	=14-	=14-	=14-
2AA/	.	2AA/	.	8AA/	4aa\	8r
.	.	.	.	8AA/	.	8ccc\
.	.	.	.	8.AA/	4r	8aa\
.	.	.	.	.	.	8ff\
.	.	.	.	32GG/	.	.
.	.	.	.	32AA/	.	.
2BB/	.	2BB/	.	8BB/	8r	4dd\
.	.	.	.	8BB/	8dd\	.
!	!	!	!	!	!	!LO:TX:t=P:problem:kreska pseudotaktowa
.	.	.	.	8.BB/	8b/	4r
!	!	!	!	!	!LO:TX:t=P:problem:kreska pseudotaktowa	!
.	.	.	.	.	8g/	.
.	.	.	.	32AA/	.	.
!	!	!	!	!LO:TX:t=P:problem:kreska pseudotaktowa	!	!
.	.	.	.	32BB/	.	.
=15-	=15-	=15-	=15-	=15-	=15-	=15-
2C/	.	2C/	.	8C/	8e/	2r
.	.	.	.	8G\	8ee\	.
.	.	.	.	8E\	8.ee\	.
.	.	.	.	8C/	.	.
.	.	.	.	.	32dd\	.
.	.	.	.	.	32ee\	.
!LO:TX:t=P:problem:kreska pseudotaktowa	!	!LO:TX:t=P:problem:kreska pseudotaktowa	!	!	!	!
2D/	.	2D/	.	4D/	4ff\	8a/
.	.	.	.	.	.	8d/
!	!	!	!	!LO:TX:t=P:problem:kreska pseudotaktowa	!LO:TX:t=P:problem:kreska pseudotaktowa	!
.	.	.	.	4r	4r	8a/
!	!	!	!	!	!	!LO:TX:t=P:problem:kreska pseudotaktowa
.	.	.	.	.	.	8dd\
=16-	=16-	=16-	=16-	=16-	=16-	=16-
2AA/	.	2AA/	.	8E\	2r	8.cc\
.	.	.	.	8AA/	.	.
.	.	.	.	.	.	16b/
.	.	.	.	8E\	.	4a/
.	.	.	.	8A\	.	.
!	!	!	!	!	!	!LO:TX:t=P:problem:kreska pseudotaktowa
4BB/	6	4BB/	6	8.G\	8r	2r
.	.	.	.	.	8gg\	.
.	.	.	.	16F\	.	.
4C/	.	4C/	.	8.E\	8.gg\	.
.	.	.	.	16G\	32ff\	.
.	.	.	.	.	32gg\	.
*custos:FF	*	*custos:FF	*	*custos:F	*custos:aa	*
!LO:LB:g=original	!	!LO:LB:g=original	!	!LO:LB:g=original	!LO:LB:g=original	!
=17-	=17-	=17-	=17-	=17-	=17-	=17-
4FF/	.	4FF/	.	8.F\	8aa\	2r
.	.	.	.	.	8dd\	.
.	.	.	.	16D/	.	.
4GG/	.	4GG/	.	8.D/	8.dd\	.
.	.	.	.	16E\	32cc\	.
.	.	.	.	.	32dd\	.
2C/	.	2C/	.	8C/	8ee\	8r
.	.	.	.	8E\	8ee\	8gg\
.	.	.	.	8C/	8.ee\	8.gg\
!	!	!	!	!LO:TX:t=P:problem:kreska pseudotaktowa	!	!
.	.	.	.	8AA/	.	.
.	.	.	.	.	32dd\	32ff\
!	!	!	!	!	!LO:TX:t=P:problem:kreska pseudotaktowa	!LO:TX:t=P:problem:kreska pseudotaktowa
.	.	.	.	.	32ee\	32gg\
=18-	=18-	=18-	=18-	=18-	=18-	=18-
2FF/	5:6	2FF/	5:6	8FF/	8ff\	8aa\
.	.	.	.	8FF/	8aa\	8ccc\
.	.	.	.	8.FF/	8ff\	8aa\
.	.	.	.	.	8dd\	8ff\
.	.	.	.	32EE/	.	.
.	.	.	.	32FF/	.	.
!LO:TX:t=P:problem:kreska pseudotaktowa	!	!LO:TX:t=P:problem:kreska pseudotaktowa	!	!	!	!
2GG/	5:6	2GG/	5:6	8GG/	8b/	4dd\
.	.	.	.	8GG/	8b/	.
!	!	!	!	!	!	!LO:TX:t=P:problem:kreska pseudotaktowa
.	.	.	.	8.GG/	8.b/	4r
.	.	.	.	32FF/	32a/	.
!	!	!	!	!LO:TX:t=P:problem:kreska pseudotaktowa	!	!
.	.	.	.	32GG/	32b/	.
=19-	=19-	=19-	=19-	=19-	=19-	=19-
!	!	!	!	!	!	!LO:TX:t=P:problem:brak pauzy w źródle
2AA/	.	2AA/	.	8AA/	4cc\	8ryy
.	.	.	.	8E\	.	8ee\
.	.	.	.	8C/	4r	8.ee\
.	.	.	.	8AA/	.	.
.	.	.	.	.	.	32dd\
.	.	.	.	.	.	32ee\
*	*	*	*	*	*	*custos:ff
!	!	!	!	!	!LO:TX:t=P:problem:kreska pseudotaktowa	!LO:LB:g=original
2FF/	5:6	2FF/	5:6	4FF/	2r	8ff\
.	.	.	.	.	.	8aa\
.	.	.	.	4r	.	8ff\
!	!	!	!	!	!	!LO:TX:t=P:problem:kreska pseudotaktowa
.	.	.	.	.	.	8dd\
=20-	=20-	=20-	=20-	=20-	=20-	=20-
2GG/	.	2GG/	.	2r	8dd\	4b/
.	.	.	.	.	8g/	.
.	.	.	.	.	8dd\	4r
.	.	.	.	.	8gg\	.
2C/	.	2C/	.	8r	8.ee\	8gg\
.	.	.	.	8E\	.	8cc\
.	.	.	.	.	16dd\	.
!	!	!	!	!	!LO:TX:t=P:problem:kreska pseudotaktowa	!
.	.	.	.	8.E\	4cc\	8gg\
!	!	!	!	!	!	!LO:TX:t=P:problem:kreska pseudotaktowa
.	.	.	.	.	.	8bb\
.	.	.	.	32D/	.	.
!	!	!	!	!LO:TX:t=P:problem:kreska pseudotaktowa	!	!
.	.	.	.	32E\	.	.
=21-	=21-	=21-	=21-	=21-	=21-	=21-
2F\	.	2F\	.	8F\	2r	8.aa\
.	.	.	.	8F\	.	.
.	.	.	.	.	.	16gg\
.	.	.	.	8.F\	.	8.ff\
.	.	.	.	32E\	.	16gg\
.	.	.	.	32F\	.	.
4G\	.	4G\	.	4G\	8r	8.gg\
.	.	.	.	.	8ee\	.
.	.	.	.	.	.	16ff\
!LO:TX:t=P:problem:kreska pseudotaktowa	!	!LO:TX:t=P:problem:kreska pseudotaktowa	!	!	!	!
4A\	#	4A\	#	4r	8.ee\	8.ee\
!	!	!	!	!	!	!LO:TX:t=P:problem:kreska pseudotaktowa
.	.	.	.	.	32dd\	16ff\
!	!	!	!	!	!LO:TX:t=P:problem:kreska pseudotaktowa	!
.	.	.	.	.	32ee\	.
*	*	*	*	*custos:D	*	*
!	!	!	!	!LO:LB:g=original	!	!
=22-	=22-	=22-	=22-	=22-	=22-	=22-
!	!	!	!	!LO:TX:t=P:problem:brak pauzy w źródle	!	!
2D/	#	2D/	#	2ryy	8ff#X\	8dd\
.	.	.	.	.	8ff#\	8a/
.	.	.	.	.	8.ff#\	8.a/
.	.	.	.	.	32ee\	32g/
.	.	.	.	.	32ff#\	32a/
*	*	*	*	*	*custos:gg	*
!	!	!	!	!	!LO:LB:g=original	!
2GG/	.	2GG/	.	8D/	4gg\	8b/
.	.	.	.	8GG/	.	8b/
!	!	!	!	!	!LO:TX:t=P:problem:kreska pseudotaktowa	!
.	.	.	.	8D/	4r	8.b/
!	!	!	!	!LO:TX:t=P:problem:kreska pseudotaktowa	!	!
.	.	.	.	8G\	.	.
.	.	.	.	.	.	32a/
!	!	!	!	!	!	!LO:TX:t=P:problem:kreska pseudotaktowa
.	.	.	.	.	.	32b/
=23-	=23-	=23-	=23-	=23-	=23-	=23-
2C/	.	2C/	.	8.E\	8r	4.cc\
.	.	.	.	.	8gg\	.
.	.	.	.	16D/	.	.
.	.	.	.	8C/	8ee\	.
.	.	.	.	8C/	8cc\	8ee\
4D/	.	4D/	.	4D\	8.b/	8.dd\
.	.	.	.	.	16a/	16cc\
!LO:TX:t=P:problem:kreska pseudotaktowa	!	!LO:TX:t=P:problem:kreska pseudotaktowa	!	!	!LO:TX:t=P:problem:kreska pseudotaktowa	!
4E\	#	4E\	#	8E\	4g#X/	8.b/
!	!	!	!	!LO:TX:t=P:problem:kreska pseudotaktowa	!	!
.	.	.	.	8EE/	.	.
.	.	.	.	.	.	16cc\
=24-	=24-	=24-	=24-	=24-	=24-	=24-
2AA/	.	2AA/	.	8AA/	4a/	4a/
.	.	.	.	8AA/	.	.
.	.	.	.	8.AA/	4r	4r
.	.	.	.	32GG/	.	.
.	.	.	.	32AA/	.	.
2BB/	.	2BB/	.	8BB/	8dd\	2r
.	.	.	.	8BB/	8gny/	.
.	.	.	.	8.BB/	8dd\	.
!	!	!	!	!	!LO:TX:t=P:problem:kreska pseudotaktowa	!
.	.	.	.	.	8gg\	.
.	.	.	.	32AA/	.	.
!	!	!	!	!LO:TX:t=P:problem:kreska pseudotaktowa	!	!
.	.	.	.	32BB/	.	.
*	*	*	*	*	*	*custos:gg
!	!	!	!	!	!	!LO:PB:g=original
=25-	=25-	=25-	=25-	=25-	=25-	=25-
2C/	.	2C/	.	8C/	8.ee\	8r
.	.	.	.	8C/	.	8gg\
.	.	.	.	.	16dd\	.
.	.	.	.	8.C/	8.cc\	8ee\
.	.	.	.	.	.	8cc\
.	.	.	.	32BB/	16ee\	.
.	.	.	.	32C/	.	.
4D/	.	4D/	.	4D/	8.dd\	4a/
.	.	.	.	.	16cc\	.
!	!	!	!	!	!	!LO:TX:t=P:problem:kreska pseudotaktowa
4E\	#	4E\	#	4r	8.b/	4r
!	!	!	!	!	!LO:TX:t=P:problem:kreska pseudotaktowa	!
.	.	.	.	.	16cc\	.
=26-	=26-	=26-	=26-	=26-	=26-	=26-
2AA/	.	2AA/	.	8E\	4a/	8r
.	.	.	.	8AA/	.	8cc\
.	.	.	.	8E\	4r	8.cc\
.	.	.	.	8A\	.	.
.	.	.	.	.	.	32b/
.	.	.	.	.	.	32cc\
!	!	!	!	!	!LO:TX:t=P:problem:kreska pseudotaktowa	!
4BB/	.	4BB/	.	8.G\	2r	8dd\
.	.	.	.	.	.	8bb\
.	.	.	.	16F\	.	.
!LO:TX:t=P:problem:kreska pseudotaktowa	!	!LO:TX:t=P:problem:kreska pseudotaktowa	!	!LO:TX:t=P:problem:kreska pseudotaktowa	!	!
4C/	.	4C/	.	4E\	.	8gg\
!	!	!	!	!	!	!LO:TX:t=P:problem:kreska pseudotaktowa
.	.	.	.	.	.	8ee\
=27-	=27-	=27-	=27-	=27-	=27-	=27-
2E\	.	2E\	.	8r	8r	4cc\
.	.	.	.	8E\	8gg\	.
.	.	.	.	8.E\	8.gg\	4r
.	.	.	.	32D/	32ffny\	.
.	.	.	.	32E\	32gg\	.
*	*	*	*	*custos:F	*	*
!	!	!	!	!LO:PB:g=original	!	!
2F\	5:6	2F\	5:6	4F\	8aa\	8r
.	.	.	.	.	8aa\	8ccc\
!	!	!	!	!LO:TX:t=P:problem:kreska pseudotaktowa	!	!
.	.	.	.	4r	8ff\	8aa\
!	!	!	!	!	!LO:TX:t=P:problem:kreska pseudotaktowa	!LO:TX:t=P:problem:kreska pseudotaktowa
.	.	.	.	.	8dd\	8ff\
=28-	=28-	=28-	=28-	=28-	=28-	=28-
4G\	.	4G\	.	8r	4b/	4dd\
.	.	.	.	8G\	.	.
8E\	.	8E\	.	8E\	4r	4r
8C/	.	8C/	.	8C/	.	.
4AA/	.	4AA/	.	8AA/	2r	8ee\
.	.	.	.	8c\	.	8a/
8A\	.	8A\	.	8A\	.	8ee\
!LO:TX:t=P:problem:kreska pseudotaktowa	!	!LO:TX:t=P:problem:kreska pseudotaktowa	!	!LO:TX:t=P:problem:kreska pseudotaktowa	!	!LO:TX:t=P:problem:kreska pseudotaktowa
8F\	.	8F\	.	8F\	.	8gg\
*	*	*	*	*	*custos:a	*
!	!	!	!	!	!LO:LB:g=original	!
=29-	=29-	=29-	=29-	=29-	=29-	=29-
2D/	#	2D/	#	4D/	8a/	8.ff#X\
.	.	.	.	.	8d/	.
.	.	.	.	.	.	16ee\
.	.	.	.	4r	8a/	4dd\
.	.	.	.	.	8dd\	.
2GG/	.	2GG/	.	8D/	8.b/	8r
.	.	.	.	8GG/	.	8dd\
.	.	.	.	.	16a/	.
!	!	!	!	!	!LO:TX:t=P:problem:kreska pseudotaktowa	!
.	.	.	.	8D/	4g/	8.dd\
!	!	!	!	!LO:TX:t=P:problem:kreska pseudotaktowa	!	!
.	.	.	.	8G\	.	.
.	.	.	.	.	.	32cc\
!	!	!	!	!	!	!LO:TX:t=P:problem:kreska pseudotaktowa
.	.	.	.	.	.	32dd\
=30-	=30-	=30-	=30-	=30-	=30-	=30-
2C/	.	2C/	.	8.E\	8r	8ee\
.	.	.	.	.	8gg\	8ee\
.	.	.	.	16D/	.	.
.	.	.	.	8.C/	8.gg\	8.ee\
.	.	.	.	16G\	32ff\	32dd\
.	.	.	.	.	32gg\	32ee\
4FF/	6 5	4FF/	6 5	8.F\	8aa\	4ffny\
.	.	.	.	.	8dd\	.
.	.	.	.	16E\	.	.
!LO:TX:t=P:problem:kreska pseudotaktowa	!	!LO:TX:t=P:problem:kreska pseudotaktowa	!	!	!	!
4GG/	.	4GG/	.	8.D/	8.dd\	4r
!	!	!	!	!LO:TX:t=P:problem:kreska pseudotaktowa	!	!
.	.	.	.	16E\	32cc\	.
!	!	!	!	!	!LO:TX:t=P:problem:kreska pseudotaktowa	!
.	.	.	.	.	32dd\	.
*	*	*	*	*	*	*custos:cc
!	!	!	!	!	!	!LO:LB:g=original
=31-	=31-	=31-	=31-	=31-	=31-	=31-
2C/	.	2C/	.	8C/	4ee\	2r
.	.	.	.	8G\	.	.
.	.	.	.	8E\	4r	.
.	.	.	.	8C/	.	.
2AA/	.	2AA/	.	4AA/	8r	8r
.	.	.	.	.	8a/	8cc\
!	!	!	!	!LO:TX:t=P:problem:kreska pseudotaktowa	!	!
.	.	.	.	4r	8.a/	8.cc\
.	.	.	.	.	32g/	32b/
!	!	!	!	!	!LO:TX:t=P:problem:kreska pseudotaktowa	!LO:TX:t=P:problem:kreska pseudotaktowa
.	.	.	.	.	32a/	32cc\
*custos:GG	*	*custos:GG	*	*	*	*
!LO:LB:g=original	!	!LO:LB:g=original	!	!	!	!
=32-	=32-	=32-	=32-	=32-	=32-	=32-
2GG/	.	2GG/	.	8D/	8b/	8dd\
.	.	.	.	8GG/	8b/	8dd\
.	.	.	.	8D/	8.b/	8.dd\
.	.	.	.	8G\	.	.
.	.	.	.	.	32a/	32cc\
.	.	.	.	.	32b/	32dd\
!LO:TX:t=P:problem:kreska pseudotaktowa	!	!LO:TX:t=P:problem:kreska pseudotaktowa	!	!	!	!
2C/	.	2C/	.	8.E\	8cc\	4ee\
.	.	.	.	.	8gg\	.
.	.	.	.	16D/	.	.
!	!	!	!	!	!	!LO:TX:t=P:problem:kreska pseudotaktowa
.	.	.	.	4C/	8ee\	4r
!	!	!	!	!	!LO:TX:t=P:problem:kreska pseudotaktowa	!
.	.	.	.	.	8cc\	.
=33-	=33-	=33-	=33-	=33-	=33-	=33-
2D/	.	2D/	.	2r	8a/	8r
.	.	.	.	.	8ff\	8aa\
.	.	.	.	.	8.ff\	8ff\
.	.	.	.	.	.	8dd\
.	.	.	.	.	32ee\	.
.	.	.	.	.	32ff\	.
4E\	.	4E\	.	8r	4gg\	4b/
.	.	.	.	8E\	.	.
!	!	!	!	!	!	!LO:TX:t=P:problem:kreska pseudotaktowa
8C/	.	8C/	.	8C/	4r	4r
8AA/	.	8AA/	.	8AA/	.	.
*	*	*	*	*custos:FF	*custos:aa	*
!	!	!	!	!LO:LB:g=original	!LO:LB:g=original	!
=34-	=34-	=34-	=34-	=34-	=34-	=34-
2FF/	5:6	2FF/	5:6	8FF/	8r	2r
.	.	.	.	8FF/	8aa\	.
.	.	.	.	8.FF/	8ff\	.
.	.	.	.	.	8dd\	.
.	.	.	.	32EE/	.	.
.	.	.	.	32FF/	.	.
!LO:TX:t=P:problem:kreska pseudotaktowa	!	!LO:TX:t=P:problem:kreska pseudotaktowa	!	!	!	!
2GG/	.	2GG/	.	8GG/	4b/	8dd\
.	.	.	.	8GG/	.	8g/
!	!	!	!	!	!LO:TX:t=P:problem:kreska pseudotaktowa	!
.	.	.	.	8.GG/	4r	8dd\
!	!	!	!	!	!	!LO:TX:t=P:problem:kreska pseudotaktowa
.	.	.	.	.	.	8gg\
.	.	.	.	32FF/	.	.
.	.	.	.	32GG/	.	.
=35-	=35-	=35-	=35-	=35-	=35-	=35-
2AA/	-	2AA/	-	4AA/	8ee\	8.ee\
.	.	.	.	.	8a/	.
.	.	.	.	.	.	16dd\
.	.	.	.	4r	8ee\	4cc\
.	.	.	.	.	8aa\	.
2D/	.	2D/	.	8r	8.ff\	8a/
.	.	.	.	8D/	.	8d/
.	.	.	.	.	16ee\	.
!	!	!	!	!	!LO:TX:t=P:problem:kreska pseudotaktowa	!
.	.	.	.	8.D/	4dd\	8a/
.	.	.	.	.	.	8dd\
.	.	.	.	32C/	.	.
!	!	!	!	!LO:TX:t=P:problem:kreska pseudotaktowa	!	!
.	.	.	.	32D/	.	.
=36-	=36-	=36-	=36-	=36-	=36-	=36-
2E\	.	2E\	.	8E\	2r	8.b\
.	.	.	.	8E\	.	.
.	.	.	.	.	.	16a/
.	.	.	.	8.E\	.	4g/
.	.	.	.	32D/	.	.
.	.	.	.	32E\	.	.
!	!	!	!	!	!	!LO:TX:t=P:problem:kreska pseudotaktowa
2F\	.	2F\	.	8F\	8r	2r
.	.	.	.	8c\	8cc\	.
.	.	.	.	8A\	8.cc\	.
.	.	.	.	8F\	.	.
.	.	.	.	.	32b/	.
.	.	.	.	.	32cc\	.
=37-	=37-	=37-	=37-	=37-	=37-	=37-
2D/	.	2D/	.	8D/	4dd\	8a/
.	.	.	.	8D/	.	8d/
.	.	.	.	8.D/	4r	8a/
.	.	.	.	.	.	8dd\
.	.	.	.	32C/	.	.
.	.	.	.	32D/	.	.
*	*	*	*	*	*	*custos:b
!	!	!	!	!	!	!LO:LB:g=original
4.E\	.	4.E\	.	8E\	8b/	8.b/
.	.	.	.	8G\	8e/	.
.	.	.	.	.	.	16a/
!	!	!	!	!	!	!LO:TX:t=P:problem:kreska pseudotaktowa
.	.	.	.	8E\	8b/	4g/
!LO:TX:t=P:problem:kreska pseudotaktowa	!	!LO:TX:t=P:problem:kreska pseudotaktowa	!	!	!LO:TX:t=P:problem:kreska pseudotaktowa	!
8C/	.	8C/	.	8C/	8ee\	.
=38-	=38-	=38-	=38-	=38-	=38-	=38-
2AA/	.	2AA/	.	4AA/	8.cc\	8ee\
.	.	.	.	.	.	8a/
.	.	.	.	.	16b/	.
.	.	.	.	4r	8.a/	8ee\
.	.	.	.	.	.	8gg\
.	.	.	.	.	16cc\	.
2D/	5:6	2D/	5:6	2r	8.dd\	8.ff\
.	.	.	.	.	16cc\	16ee\
.	.	.	.	.	8.b/	8.dd\
!	!	!	!	!	!LO:TX:t=P:problem:kreska pseudotaktowa	!
.	.	.	.	.	16dd\	16ff\
*	*	*	*	*custos:A	*	*
!	!	!	!	!LO:LB:g=original	!	!
=39-	=39-	=39-	=39-	=39-	=39-	=39-
2AA/	.	2AA/	.	8r	8.cc\	8.ee\
.	.	.	.	8A\	.	.
.	.	.	.	.	16b/	16dd\
.	.	.	.	8.A\	8.a/	8.cc\
.	.	.	.	32G\	16b/	16dd\
.	.	.	.	32A\	.	.
4E\	#	4E\	#	8B\	4g#X/	8b/
.	.	.	.	8E\	.	8ee\
4F\	.	4F\	.	8F\	4r	8cc\
!	!	!	!	!LO:TX:t=P:problem:kreska pseudotaktowa	!	!
.	.	.	.	8A\	.	8a/
*	*	*	*	*	*custos:ee	*
!	!	!	!	!	!LO:LB:g=original	!
=40-	=40-	=40-	=40-	=40-	=40-	=40-
4E\	#	4E\	#	4E\	8r	8b\
.	.	.	.	.	8ee\	8g#X/
8A\	.	8A\	.	8A\	8cc\	4.a/
8F\	.	8F\	.	8F\	8a/	.
4D\	.	4D\	.	8D/	2b/	.
.	.	.	.	8BB/	.	8a/
4E\	#	4E\	#	8E\	.	4g#X/
.	.	.	.	8EE/	.	.
=41-	=41-	=41-	=41-	=41-	=41-	=41-
!	!	!	!	!	!	!LO:TX:t=P:problem:kreska pseudotaktowa
1AA	.	1AA	.	1AA	1a	1a
=42-	=42-	=42-	=42-	=42-	=42-	=42|
*M6/4	*	*M6/4	*	*M6/4	*M6/4	*M6/4
2A\	.	2A\	.	2A\	2cc\	2ee\
4A\	.	4A\	.	4A\	4cc\	4ee\
2G#X\	.	2G#X\	.	2G#X\	2b/	2ee\
!LO:TX:t=P:problem:kreska pseudotaktowa	!	!LO:TX:t=P:problem:kreska pseudotaktowa	!	!LO:TX:t=P:problem:kreska pseudotaktowa	!LO:TX:t=P:problem:kreska pseudotaktowa	!LO:TX:t=P:problem:kreska pseudotaktowa
4A\	.	4A\	.	4A\	4cc\	4ee\
=43-	=43-	=43-	=43-	=43-	=43-	=43-
2D/	.	2D/	.	2D/	2dd\	2ff\
4E\	.	4E\	.	4E\	4cc\	4ee\
4F\	6 4	4F\	6 4	4F\	2b/	2dd\
4Gny\	.	4Gny\	.	4Gny\	.	.
!	!	!	!	!LO:TX:t=P:problem:kreska pseudotaktowa	!	!
4A\	.	4A\	.	4A\	4a/	4cc\
*custos:E	*	*custos:E	*	*	*	*custos:b
!LO:LB:g=original	!	!LO:LB:g=original	!	!	!	!LO:LB:g=original
=44-	=44-	=44-	=44-	=44-	=44-	=44-
2E\	#	2E\	#	2E\	2g#X/	2b/
4F\	.	4F\	.	4F\	4a/	4a/
2D/	.	2D/	.	2D/	2a/	2b/
4E\	#	4E\	#	4E\	4g#X/	4b/
=45-	=45-	=45-	=45-	=45-	=45-	=45-
!LO:TX:t=P:problem:kreska pseudotaktowa	!	!LO:TX:t=P:problem:kreska pseudotaktowa	!	!LO:TX:t=P:problem:kreska pseudotaktowa	!LO:TX:t=P:problem:kreska pseudotaktowa	!LO:TX:t=P:problem:kreska pseudotaktowa
1.AA	.	1.AA	.	1.AA	1.a	1.a
=46-	=46-	=46-	=46-	=46-	=46-	=46-
2c\	.	2c\	.	2c\	2ee\	2gg\
4c\	.	4c\	.	4c\	4ee\	4gg\
2B\	.	2B\	.	2B\	2dd\	2gg\
!	!	!	!	!	!LO:TX:t=P:problem:kreska pseudotaktowa	!LO:TX:t=P:problem:kreska pseudotaktowa
4c\	.	4c\	.	4c\	4ee\	4gg\
*	*	*	*	*custos:F	*	*
!	!	!	!	!LO:LB:g=original	!	!
=47-	=47-	=47-	=47-	=47-	=47-	=47-
2F\	.	2F\	.	2F\	2ff\	2aa\
4G\	.	4G\	.	4G\	4ee\	4gg\
4A\	6 4	4A\	6 4	4A\	2dd\	2ff\
4B\	.	4B\	.	4B\	.	.
!LO:TX:t=P:problem:kreska pseudotaktowa	!	!LO:TX:t=P:problem:kreska pseudotaktowa	!	!LO:TX:t=P:problem:kreska pseudotaktowa	!LO:TX:t=P:problem:kreska pseudotaktowa	!
4c\	.	4c\	.	4c\	4cc\	4ee\
=48-	=48-	=48-	=48-	=48-	=48-	=48-
2G\	.	2G\	.	2G\	2b/	2dd\
4A\	.	4A\	.	4A\	4cc\	4cc\
2F\	.	2F\	.	2F\	2cc\	2dd\
4G\	.	4G\	.	4G\	4b/	4dd\
=49-	=49-	=49-	=49-	=49-	=49-	=49-
!LO:TX:t=P:problem:kreska pseudotaktowa	!	!LO:TX:t=P:problem:kreska pseudotaktowa	!	!LO:TX:t=P:problem:kreska pseudotaktowa	!LO:TX:t=P:problem:kreska pseudotaktowa	!LO:TX:t=P:problem:kreska pseudotaktowa
1.C	.	1.C	.	1.C	1.cc	1.cc
=50-	=50-	=50-	=50-	=50-	=50-	=50-
2G\	.	2G\	.	2G\	2b/	2dd\
4G\	.	4G\	.	4G\	4b/	4dd\
2F#X\	.	2F#X\	.	2F#X\	2a/	2dd\
!	!	!	!	!LO:TX:t=P:problem:kreska pseudotaktowa	!	!LO:TX:t=P:problem:kreska pseudotaktowa
4G\	.	4G\	.	4G\	4b/	4dd\
*	*	*	*	*	*custos:cc	*
!	!	!	!	!	!LO:LB:g=original	!
=51-	=51-	=51-	=51-	=51-	=51-	=51-
2C/	.	2C/	.	2C/	2cc\	2ee\
4D/	.	4D/	.	4D/	4b/	4dd\
4E\	6 4	4E\	6 4	4E\	2a/	2cc\
4Fny\	.	4Fny\	.	4Fny\	.	.
!	!	!	!	!LO:TX:t=P:problem:kreska pseudotaktowa	!	!
4G\	.	4G\	.	4G\	4gny/	4b/
=52-	=52-	=52-	=52-	=52-	=52-	=52-
2D/	#	2D/	#	2D/	2f#X/	2a/
4E\	.	4E\	.	4E\	4g/	4gny/
2C/	.	2C/	.	2C/	2g/	2a/
4D/	#	4D/	#	4D/	4f#X/	4a/
=53-	=53-	=53-	=53-	=53-	=53-	=53-
!LO:TX:t=P:problem:kreska pseudotaktowa	!	!LO:TX:t=P:problem:kreska pseudotaktowa	!	!	!	!
1.GG	.	1.GG	.	1.GG	1.g	1.g
=54-	=54-	=54-	=54-	=54-	=54-	=54-
*M2/2	*	*M2/2	*	*M2/2	*M2/2	*M2/2
*met(C|)	*	*met(C|)	*	*met(C|)	*met(C|)	*met(C|)
!LO:TX:b:t=adagio.	!	!LO:TX:b:t=adagio.	!	!LO:TX:b:t=adagio.	!LO:TX:b:t=adagio.	!LO:TX:b:t=adagio.
4r	.	4r	.	4r	4r	4r
2G\	.	2G\	.	2G\	2b/	2dd\
4E\	.	4E\	.	4E\	2ee\	4gg\
=55-	=55-	=55-	=55-	=55-	=55-	=55-
4.F\	7:6	4.F\	7:6	4.F\	.	2ff\
.	.	.	.	.	2dd\	.
8G\	.	8G\	.	8G\	.	.
*custos:A	*	*custos:A	*	*	*	*
!LO:LB:g=original	!	!LO:LB:g=original	!	!	!	!
!LO:TX:t=P:problem:kreska pseudotaktowa	!	!LO:TX:t=P:problem:kreska pseudotaktowa	!	!LO:TX:t=P:problem:kreska pseudotaktowa	!	!
2A\	5 4:3	2A\	5 4:3	2A\	.	2ee\
!	!	!	!	!	!LO:TX:t=P:problem:kreska pseudotaktowa	!
.	.	.	.	.	4cc\	.
*	*	*	*	*	*	*custos:ee
!	!	!	!	!	!	!LO:LB:g=original
=56-	=56-	=56-	=56-	=56-	=56-	=56-
4r	.	4r	.	4r	4r	4r
4A\	5	4A\	5	4A\	4cc\	4ee\
4A\	6	4A\	6	4A\	4cc\	4ff\
4B\	6	4B\	6	4B\	4dd\	4gg\
=57-	=57-	=57-	=57-	=57-	=57-	=57-
[<2c\	6	[<2c\	6	2.c\	2ee\	2.aa\
4c\]	6 2	4c\]	6 2	.	2.dd\	.
4F#X\	.	4F#X\	.	4F#X\	.	4aa\
*	*	*	*	*custos:G	*	*
!	!	!	!	!LO:LB:g=original	!	!
=58-	=58-	=58-	=58-	=58-	=58-	=58-
4G\	.	4G\	.	4G\	.	4bb-X\
4A\	#	4A\	#	4A\	4cc#X\	2aa\
2B-X\	7:6	2B-X\	7:6	2B-X\	4.dd\	.
!	!	!	!	!	!	!LO:TX:t=P:problem:kreska pseudotaktowa
.	.	.	.	.	.	4gg\
!	!	!	!	!	!LO:TX:t=P:problem:kreska pseudotaktowa	!
.	.	.	.	.	8ee\	.
=59-	=59-	=59-	=59-	=59-	=59-	=59-
[<1A	#	[<1A	#	0A	4cc#X\	8aa\
.	.	.	.	.	.	8aa\
.	.	.	.	.	8r	8gg\
.	.	.	.	.	8aa\	8ff\
.	.	.	.	.	8gg\	8ee\
.	.	.	.	.	8ff\	8dd\
.	.	.	.	.	8ee\	8cc#X\
!	!	!	!	!	!LO:TX:t=P:problem:kreska pseudotaktowa	!
.	.	.	.	.	8dd\	8ff\
=60-	=60-	=60-	=60-	=60-	=60-	=60-
1A]	#:4#r	1A]	#:4#r	.	8cc#X\	4ee\
.	.	.	.	.	8a/	.
.	.	.	.	.	4.dd\	4dd\
.	.	.	.	.	.	4.ee\
.	.	.	.	.	8cc#\	.
.	.	.	.	.	4cc#X\	.
.	.	.	.	.	.	8ee\
*	*	*	*	*	*custos:dd	*
!	!	!	!	!	!LO:LB:g=original	!
=61-	=61-	=61-	=61-	=61-	=61-	=61-
8D/	.	8D/	.	8D/	2dd\	2dd\
8G\	.	8G\	.	8G\	.	.
8Fny\	.	8F\ny	.	8Fny\	.	.
8E\	.	8E\	.	8E\	.	.
!	!	!	!	!	!LO:TX:t=P:problem:kreska pseudotaktowa	!LO:TX:t=P:problem:kreska pseudotaktowa
8D/	.	8D/	.	8D/	2r	2r
8C/	.	8C/	.	8C/	.	.
8BB/	.	8BB/	.	8BB/	.	.
8AA/	.	8AA/	.	8AA/	.	.
=62-	=62-	=62-	=62-	=62-	=62-	=62-
[1GG	.	[1GG	.	0GG	4r	8r
.	.	.	.	.	.	8gg\
.	.	.	.	.	8r	8ff\
.	.	.	.	.	8gg\	8ee\
.	.	.	.	.	8ff\	8dd\
.	.	.	.	.	8ee\	8ccny\
.	.	.	.	.	8dd\	8b/
!	!	!	!	!	!	!LO:TX:t=P:problem:kreska pseudotaktowa
.	.	.	.	.	8ccny\	8ee\
=63-	=63-	=63-	=63-	=63-	=63-	=63-
1GG]	3:4:3	1GG]	3:4:3	.	8b\	4dd\
.	.	.	.	.	8g/	.
.	.	.	.	.	4.cc\	4cc\
.	.	.	.	.	.	4.dd\
.	.	.	.	.	8cc\	.
!	!	!	!	!	!LO:TX:t=P:problem:kreska pseudotaktowa	!
.	.	.	.	.	4b/	.
.	.	.	.	.	.	8dd\
=64-	=64-	=64-	=64-	=64-	=64-	=64-
2.C/	.	2.C/	.	2.C/	4cc\	4cc\
.	.	.	.	.	4.cc\	4.ee\
.	.	.	.	.	8cc\	8ee\
4D/	.	4D/	.	4D/	8b\	8dd\
.	.	.	.	.	8a/	8cc\
*	*	*	*	*	*	*custos:cc
!	!	!	!	!	!	!LO:LB:g=original
=65-	=65-	=65-	=65-	=65-	=65-	=65-
1E	6:5 4#r	1E	6:5 4#r	1E	4.a/	4.cc\
.	.	.	.	.	8g#X/	8b/
.	.	.	.	.	2g#/	2b/
=66-	=66-	=66-	=66-	=66-	=66-	=66-
*M3/2	*	*M3/2	*	*M3/2	*M3/2	*M3/2
!LO:TX:b:t=Largo.	!	!LO:TX:b:t=Largo.	!	!LO:TX:b:t=Largo.	!	!
1C	.	1C	.	4r	00.r	0.r
.	.	.	.	8G\	.	.
.	.	.	.	8F\	.	.
.	.	.	.	8E\	.	.
.	.	.	.	8G\	.	.
.	.	.	.	8A\	.	.
.	.	.	.	8Bny\	.	.
2AA/	.	2AA/	.	4c\	.	.
!	!	!	!	!LO:TX:t=P:problem:kreska pseudotaktowa	!	!
.	.	.	.	4B\	.	.
=67-	=67-	=67-	=67-	=67-	=67-	=67-
2FF/	.	2FF/	.	4A\	.	.
.	.	.	.	4G\	.	.
2F\	.	2F\	.	4F\	.	.
.	.	.	.	4E\	.	.
!LO:TX:t=P:problem:kreska pseudotaktowa	!	!LO:TX:t=P:problem:kreska pseudotaktowa	!	!	!	!
2D/	6	2D/	6	4D/	.	.
.	.	.	.	8C/	.	.
!	!	!	!	!LO:TX:t=P:problem:kreska pseudotaktowa	!	!
.	.	.	.	8D/	.	.
=68-	=68-	=68-	=68-	=68-	=68-	=68-
!	!	!	!	!	!	!LO:TX:b:t=Largo.
1C	.	1C	.	2E\	.	4r
.	.	.	.	.	.	8gg\
.	.	.	.	.	.	8ff\
.	.	.	.	8r	.	8ee\
.	.	.	.	8E\	.	8gg\
.	.	.	.	8F\	.	8aa\
.	.	.	.	8G\	.	8bbny\
2AA/	.	2AA/	.	4A\	.	4ccc\
!	!	!	!	!	!	!LO:TX:t=P:problem:kreska pseudotaktowa
.	.	.	.	4G\	.	4bb\
*custos:F	*	*custos:F	*	*custos:F	*	*
!LO:LB:g=original	!	!LO:LB:g=original	!	!LO:LB:g=original	!	!
=69-	=69-	=69-	=69-	=69-	=69-	=69-
2F\	.	2F\	.	4F\	.	4aa\
.	.	.	.	4E\	.	4gg\
2D/	.	2D/	.	4D/	.	4ff\
.	.	.	.	8E\	.	4ee\
.	.	.	.	8F\	.	.
2G\	.	2G\	.	8G\	.	4dd\
.	.	.	.	8GG/	.	.
.	.	.	.	8AA/	.	8cc\
!	!	!	!	!LO:TX:t=P:problem:kreska pseudotaktowa	!	!LO:TX:t=P:problem:kreska pseudotaktowa
.	.	.	.	8BB/	.	8dd\
=70-	=70-	=70-	=70-	=70-	=70-	=70-
1C	.	1C	.	4C/	1.r	4ee\
.	.	.	.	4BB/	.	4dd\
.	.	.	.	4C/	.	4ee\
.	.	.	.	4D/	.	4ff\
2E\	.	2E\	.	4E\	.	8gg\
.	.	.	.	.	.	8ee\
.	.	.	.	4F\	.	8dd\
!	!	!	!	!	!	!LO:TX:t=P:problem:kreska pseudotaktowa
.	.	.	.	.	.	8cc\
!	!	!	!	!	!LO:TX:t=P:problem: 3x custos	!
*	*	*	*	*	*custos:dd	*
!	!	!	!	!	!LO:PB:g=original	!
=71-	=71-	=71-	=71-	=71-	=71-	=71-
1G	.	1G	.	1G	4r	4b/
.	.	.	.	.	8dd\	8b/
.	.	.	.	.	8cc\	8a/
.	.	.	.	.	8b/	8g/
.	.	.	.	.	8dd\	8b/
.	.	.	.	.	8ee\	8cc\
.	.	.	.	.	8ff\	8dd\
2C/	.	2C/	.	2C/	4gg\	4ee\
!	!	!	!	!	!LO:TX:t=P:problem:kreska pseudotaktowa	!
.	.	.	.	.	4ff\	4dd\
*	*	*	*	*	*	*custos:cc
!	!	!	!	!	!	!LO:LB:g=original
=72-	=72-	=72-	=72-	=72-	=72-	=72-
1C	.	1C	.	1C	4ee\	4cc\
.	.	.	.	.	4dd\	4b/
.	.	.	.	.	4cc\	4a/
.	.	.	.	.	4b/	4g/
!	!	!	!	!LO:TX:t=P:problem:kreska pseudotaktowa	!	!
2D/	#	2D/	#	2r	4a/	4f#X/
.	.	.	.	.	8gny/	8e/
!	!	!	!	!	!LO:TX:t=P:problem:kreska pseudotaktowa	!LO:TX:t=P:problem:kreska pseudotaktowa
.	.	.	.	.	8a/	8f#/
=73-	=73-	=73-	=73-	=73-	=73-	=73-
1.GG	5:6	1.GG	5:6	4r	4b/	1g
.	.	.	.	8D/	8b/	.
.	.	.	.	8C/	8a/	.
.	.	.	.	8BB/	8g/	.
.	.	.	.	8D/	8b/	.
.	.	.	.	8E\	8cc\	.
.	.	.	.	8F\	8dd\	.
!	!	!	!	!	!	!LO:TX:t=P:problem:kreska pseudotaktowa
.	.	.	.	4G\	4ee\	2r
!	!	!	!	!LO:TX:t=P:problem:kreska pseudotaktowa	!LO:TX:t=P:problem:kreska pseudotaktowa	!
.	.	.	.	4F\	4dd\	.
=74-	=74-	=74-	=74-	=74-	=74-	=74-
1C	.	1C	.	4E\	1cc	4r
.	.	.	.	8E\	.	8gg\
.	.	.	.	8D/	.	8ff\
.	.	.	.	8C/	.	8ee\
.	.	.	.	8E\	.	8gg\
.	.	.	.	8F\	.	8aa\
.	.	.	.	8G\	.	8bb\
!	!	!	!	!	!LO:TX:t=P:problem:kreska pseudotaktowa	!
2AA/	.	2AA/	.	4A\	2r	4ccc\
.	.	.	.	4G\	.	4bb\
=75-	=75-	=75-	=75-	=75-	=75-	=75-
1F	.	1F	.	2.F\	4r	1aa
.	.	.	.	.	8cc\	.
.	.	.	.	.	8b/	.
.	.	.	.	.	8a/	.
.	.	.	.	.	8cc\	.
.	.	.	.	4E\	8dd\	.
.	.	.	.	.	8ee\	.
!	!	!	!	!	!	!LO:TX:t=P:problem:kreska pseudotaktowa
2D/	.	2D/	.	2D/	4ff\	2r
.	.	.	.	.	4ee\	.
=76-	=76-	=76-	=76-	=76-	=76-	=76-
!LO:TX:t=P:problem:kreska pseudotaktowa	!	!LO:TX:t=P:problem:kreska pseudotaktowa	!	!	!	!
1.G	.	1.G	.	1.G	2.dd\	4r
.	.	.	.	.	.	8dd\
.	.	.	.	.	.	8cc\
.	.	.	.	.	.	8b/
.	.	.	.	.	.	8dd\
.	.	.	.	.	4cc\	8ee\
.	.	.	.	.	.	8ff\
.	.	.	.	.	4b/	4gg\
.	.	.	.	.	8a/	4ff\
.	.	.	.	.	8b/	.
*	*	*	*	*custos:E	*	*
!	!	!	!	!LO:LB:g=original	!	!
=77-	=77-	=77-	=77-	=77-	=77-	=77-
2C/	.	2C/	.	4r	1cc	1ee
.	.	.	.	8E\	.	.
.	.	.	.	8D/	.	.
2AA/	.	2AA/	.	8C/	.	.
.	.	.	.	8E\	.	.
.	.	.	.	8F\	.	.
.	.	.	.	8G\	.	.
!	!	!	!	!	!	!LO:TX:t=P:problem:kreska pseudotaktowa
2A\	.	2A\	.	4A\	2r	2r
.	.	.	.	4G\	.	.
*	*	*	*	*	*custos:aa	*
!	!	!	!	!	!LO:LB:g=original	!
=78-	=78-	=78-	=78-	=78-	=78-	=78-
[<1.F	.	[<1.F	.	1F	4r	4r
.	.	.	.	.	8aa\	8ccc\
.	.	.	.	.	8gg\	8bb\
.	.	.	.	.	8ff\	8aa\
.	.	.	.	.	8ee\	8gg\
.	.	.	.	.	8ff\	8aa\
.	.	.	.	.	8gg\	8bb\
.	.	.	.	2r	4aa\	4ccc\
!	!	!	!	!	!LO:TX:t=P:problem:kreska pseudotaktowa	!
.	.	.	.	.	4gg\	4bb\
*	*	*	*	*	*	*custos:aa
!	!	!	!	!	!	!LO:LB:g=original
=79-	=79-	=79-	=79-	=79-	=79-	=79-
!	!	!	!	!LO:TX:t=P:problem:kreska pseudotaktowa	!	!
1F]	5:6	1F]	5:6	1.r	4ff\	4aa\
.	.	.	.	.	4ee\	4gg\
.	.	.	.	.	4dd\	4ff\
.	.	.	.	.	4cc\	4ee\
!LO:TX:t=P:problem:kreska pseudotaktowa	!	!LO:TX:t=P:problem:kreska pseudotaktowa	!	!	!	!
2G\	.	2G\	.	.	4b/	4dd\
.	.	.	.	.	8a/	8cc\
.	.	.	.	.	8b/	8dd\
=80-	=80-	=80-	=80-	=80-	=80-	=80-
2C/	.	2C/	.	4r	1cc	1ee
.	.	.	.	8C/	.	.
.	.	.	.	8BB/	.	.
2AA/	.	2AA/	.	8AA/	.	.
.	.	.	.	8C/	.	.
.	.	.	.	8D/	.	.
.	.	.	.	8E\	.	.
!	!	!	!	!	!LO:TX:t=P:problem:kreska pseudotaktowa	!
2F\	.	2F\	.	4F\	2r	2r
!	!	!	!	!LO:TX:t=P:problem:kreska pseudotaktowa	!	!
.	.	.	.	4E\	.	.
=81-	=81-	=81-	=81-	=81-	=81-	=81-
!	!	!	!	!	!	!LO:TX:t=P:problem:kreska pseudotaktowa
1.D	#	1.D	#	2D/	4r	1.r
.	.	.	.	.	8a/	.
.	.	.	.	.	8g/	.
.	.	.	.	2r	8f#X/	.
.	.	.	.	.	8a/	.
.	.	.	.	.	8b/	.
.	.	.	.	.	8cc\	.
.	.	.	.	8r	4dd\	.
.	.	.	.	8D/	.	.
!	!	!	!	!	!LO:TX:t=P:problem:kreska pseudotaktowa	!
.	.	.	.	8E\	4cc\	.
!	!	!	!	!LO:TX:t=P:problem:kreska pseudotaktowa	!	!
.	.	.	.	8F\	.	.
=82-	=82-	=82-	=82-	=82-	=82-	=82-
1G	.	1G	.	2.G\	4b/	4r
.	.	.	.	.	8b/	8dd\
.	.	.	.	.	8a/	8cc\
.	.	.	.	.	8g/	8b/
.	.	.	.	.	8b/	8dd\
.	.	.	.	4F\	8cc\	8ee\
.	.	.	.	.	8dd\	8ff\
!	!	!	!	!LO:TX:t=P:problem:kreska pseudotaktowa	!	!
2E\	.	2E\	.	2E\	4ee\	4gg\
!	!	!	!	!	!LO:TX:t=P:problem:kreska pseudotaktowa	!LO:TX:t=P:problem:kreska pseudotaktowa
.	.	.	.	.	4dd\	4ff\
=83-	=83-	=83-	=83-	=83-	=83-	=83-
1A	-	1A	-	2AA/	4cc\	4ee\
.	.	.	.	.	4b/	4dd\
.	.	.	.	8r	4a/	4cc\
.	.	.	.	8AA/	.	.
.	.	.	.	8BB/	4g/	4b/
.	.	.	.	8C/	.	.
*	*	*	*	*	*custos:f#	*
!LO:TX:t=P:problem:kreska pseudotaktowa	!	!LO:TX:t=P:problem:kreska pseudotaktowa	!	!LO:TX:t=P:problem:kreska pseudotaktowa	!LO:LB:g=original	!
2D/	#	2D/	#	2D/	4f#X/	4a/
.	.	.	.	.	8e/	8g/
!	!	!	!	!	!	!LO:TX:t=P:problem:kreska pseudotaktowa
.	.	.	.	.	8f#/	8a/
=84-	=84-	=84-	=84-	=84-	=84-	=84-
2G\	.	2G\	.	4GG/	2g/	2b/
.	.	.	.	8G\	.	.
.	.	.	.	8F\	.	.
2E\	.	2E\	.	8E\	2r	2r
.	.	.	.	8G\	.	.
.	.	.	.	8A\	.	.
.	.	.	.	8B\	.	.
!	!	!	!	!	!LO:TX:t=P:problem:kreska pseudotaktowa	!LO:TX:t=P:problem:kreska pseudotaktowa
2C/	.	2C/	.	4c\	2r	2r
.	.	.	.	4B\	.	.
*	*	*	*	*custos:A	*	*
!	!	!	!	!LO:LB:g=original	!	!
=85-	=85-	=85-	=85-	=85-	=85-	=85-
1F	.	1F	.	4A\	4r	4r
.	.	.	.	2F\	8a/	8cc\
.	.	.	.	.	8g/	8b/
.	.	.	.	.	8fny/	8a/
.	.	.	.	.	8a/	8cc\
.	.	.	.	4E\	8b/	8dd\
.	.	.	.	.	8cc\	8ee\
2D/	.	2D/	.	8D/	4dd\	4ff\
.	.	.	.	8D/	.	.
!	!	!	!	!	!LO:TX:t=P:problem:kreska pseudotaktowa	!LO:TX:t=P:problem:kreska pseudotaktowa
.	.	.	.	8E\	4cc\	4ee\
!	!	!	!	!LO:TX:t=P:problem:kreska pseudotaktowa	!	!
.	.	.	.	8F\	.	.
*	*	*	*	*	*	*custos:dd
!	!	!	!	!	!	!LO:LB:g=original
=86-	=86-	=86-	=86-	=86-	=86-	=86-
2G\	.	2G\	.	4G\	2b/	2dd\
.	.	.	.	4F\	.	.
2E\	.	2E\	.	4E\	2r	2r
.	.	.	.	4D/	.	.
!	!	!	!	!	!	!LO:TX:t=P:problem:kreska pseudotaktowa
2C/	.	2C/	.	4C/	2r	2r
.	.	.	.	8BB/	.	.
.	.	.	.	8C/	.	.
=87-	=87-	=87-	=87-	=87-	=87-	=87-
1D	.	1D	.	2D/	4r	4r
.	.	.	.	.	8f#X/	8a/
.	.	.	.	.	8e/	8g/
.	.	.	.	4D/	8d/	8f#X/
.	.	.	.	.	8f#X/	8a/
.	.	.	.	4C/	8g/	8b/
.	.	.	.	.	8a/	8cc\
2BB/	.	2BB/	.	8BB/	4b/	4dd\
.	.	.	.	8BB/	.	.
!	!	!	!	!	!LO:TX:t=P:problem:kreska pseudotaktowa	!
.	.	.	.	8C/	4a/	4cc\
!	!	!	!	!LO:TX:t=P:problem:kreska pseudotaktowa	!	!
.	.	.	.	8D/	.	.
*custos:E	*	*custos:E	*	*	*	*
!LO:LB:g=original	!	!LO:LB:g=original	!	!	!	!
=88-	=88-	=88-	=88-	=88-	=88-	=88-
2E\	.	2E\	.	4E\	2g/	2b/
.	.	.	.	8E\	.	.
.	.	.	.	8D/	.	.
2C/	.	2C/	.	8C/	8r	2r
.	.	.	.	8E\	8g/	.
.	.	.	.	8F\	8a/	.
.	.	.	.	8G\	8b/	.
!	!	!	!	!	!	!LO:TX:t=P:problem:kreska pseudotaktowa
2AA/	.	2AA/	.	4A\	4cc\	2r
!	!	!	!	!LO:TX:t=P:problem:kreska pseudotaktowa	!LO:TX:t=P:problem:kreska pseudotaktowa	!
.	.	.	.	4G\	4b/	.
=89-	=89-	=89-	=89-	=89-	=89-	=89-
1F	.	1F	.	2.F\	4a/	4r
.	.	.	.	.	8a/	8cc\
.	.	.	.	.	8g/	8b/
.	.	.	.	.	8fny/	8a/
.	.	.	.	.	8a/	8cc\
.	.	.	.	4E\	8b/	8dd\
.	.	.	.	.	8cc\	8ee\
2D/	.	2D/	.	2D/	4dd\	4ff\
.	.	.	.	.	4cc\	4ee\
*	*	*	*	*	*custos:b	*custos:dd
!	!	!	!	!	!LO:LB:g=original	!LO:LB:g=original
=90-	=90-	=90-	=90-	=90-	=90-	=90-
1.G	5:6	1.G	5:6	1.G	4b/	4dd\
.	.	.	.	.	8b/	8dd\
.	.	.	.	.	8a/	8cc\
.	.	.	.	.	8g/	8b/
.	.	.	.	.	8b/	8dd\
.	.	.	.	.	8cc\	8ee\
.	.	.	.	.	8dd\	8ff\
.	.	.	.	.	4ee\	4gg\
!	!	!	!	!	!LO:TX:t=P:problem:kreska pseudotaktowa	!LO:TX:t=P:problem:kreska pseudotaktowa
.	.	.	.	.	4dd\	4ff\
=91-	=91-	=91-	=91-	=91-	=91-	=91-
4A\	.	4A\	.	4A\	4cc\	2ee\
4AA/	.	4AA/	.	8AA/	8cc\	.
.	.	.	.	8GG/	8b/	.
8FF/	.	8FF/	.	8FF/	8a/	2r
8C/	.	8C/	.	8C/	8ee\	.
8D/	.	8D/	.	8D/	8ff\	.
8E\	.	8E\	.	8E\	8gg\	.
*	*	*	*	*custos:F	*	*
!	!	!	!	!LO:LB:g=original	!	!LO:TX:t=P:problem:kreska pseudotaktowa
4F\	.	4F\	.	4F\	4aa\	2r
4E\	.	4E\	.	4E\	4gg\	.
=92-	=92-	=92-	=92-	=92-	=92-	=92-
1.D	5:6	1.D	5:6	1.D	8ff\	4r
.	.	.	.	.	8a/	.
.	.	.	.	.	8b/	8ff\
.	.	.	.	.	8cc\	8ee\
.	.	.	.	.	4dd\	8dd\
.	.	.	.	.	.	8aa\
.	.	.	.	.	4cc\	8bb\
.	.	.	.	.	.	8ccc\
.	.	.	.	.	4b/	4ddd\
!	!	!	!	!	!	!LO:TX:t=P:problem:kreska pseudotaktowa
.	.	.	.	.	4a/	4ccc\
=93-	=93-	=93-	=93-	=93-	=93-	=93-
1.E	4#r	1.E	4#r	1.E	1a	8bb\
.	.	.	.	.	.	8b/
.	.	.	.	.	.	8cc\
.	.	.	.	.	.	8dd\
.	.	.	.	.	.	4ee\
.	.	.	.	.	.	4cc\
.	.	.	.	.	2g#X/	2b/
=94-	=94-	=94-	=94-	=94-	=94-	=94-
1.AA	.	1.AA	.	1.AA	1.a	1.a
=95-	=95-	=95-	=95-	=95-	=95-	=95-
*M2/2	*	*M2/2	*	*M2/2	*M2/2	*M2/2
*met(C|)	*	*met(C|)	*	*met(C|)	*met(C|)	*met(C|)
!	!	!	!	!LO:TX:b:t=adagio.	!LO:TX:b:t=adagio.	!LO:TX:b:t=adagio.
4r	.	4r	.	4r	4r	4r
4A\	.	4A\	.	4A\	4a/	4cc\
4G\	.	4G\	.	4G\	4b/	4dd\
!	!	!	!	!	!	!LO:TX:t=P:problem:kreska pseudotaktowa
4E\	6	4E\	6	4E\	4cc\	4.ee\
=96-	=96-	=96-	=96-	=96-	=96-	=96-
2F\	7:6	2F\	7:6	2F\	2a/	.
.	.	.	.	.	.	8ee\
.	.	.	.	.	.	4dd\
*	*	*	*	*	*	*custos:ee
!	!	!	!	!	!	!LO:PB:g=original
4.E\	.	4.E\	.	4.E\	2b/	4ee\
!	!	!	!	!	!	!LO:TX:t=P:problem:kreska pseudotaktowa
.	.	.	.	.	.	4.gg\
!LO:TX:t=P:problem:kreska pseudotaktowa	!	!LO:TX:t=P:problem:kreska pseudotaktowa	!	!	!	!
8D/	.	8D/	.	8D/	.	.
*	*	*	*	*	*custos:ee	*
!	!	!	!	!	!LO:LB:g=original	!
=97-	=97-	=97-	=97-	=97-	=97-	=97-
2C#X/	5:6	2C#X/	5:6	2C#X/	4r	.
.	.	.	.	.	.	8gg\
.	.	.	.	.	4.ee\	4aa\
2D/	9:8	2D/	9:8	2D/	.	4.ff\
.	.	.	.	.	8ee\	.
.	.	.	.	.	4.dd\	.
!	!	!	!	!	!	!LO:TX:t=P:problem:kreska pseudotaktowa
.	.	.	.	.	.	8ff\
=98-	=98-	=98-	=98-	=98-	=98-	=98-
2.AA/	5 4:3	2.AA/	5 4:3	2.AA/	.	2ee\
.	.	.	.	.	8dd\	.
.	.	.	.	.	4cc\	.
!	!	!	!	!	!LO:TX:t=P:problem:kreska pseudotaktowa	!
.	.	.	.	.	2b/	2.ee\
4GG/	2	4GG/	2	4GG/	.	.
=99-	=99-	=99-	=99-	=99-	=99-	=99-
2FF#X/	7:6	2FF#X/	7:6	2FF#X/	2a/	.
.	.	.	.	.	.	4dd\
4GG/	6	4GG/	6	4GG/	4b/	4ee\
4AA/	6 #	4AA/	6 #	4AA/	4cc#X\	4ff#X\
=100-	=100-	=100-	=100-	=100-	=100-	=100-
1BB	6:5 4#	1BB	6:5 4#	1BB	4dd#X\	2gg\
.	.	.	.	.	2ee\	.
.	.	.	.	.	.	2ff#X\
.	.	.	.	.	4dd#X\	.
=101-	=101-	=101-	=101-	=101-	=101-	=101-
[1EE	#	[1EE	#	0EE	4ee\	2.ee\
.	.	.	.	.	4ff#X\	.
.	.	.	.	.	4gg#X\	.
.	.	.	.	.	8aa\	8dd\
.	.	.	.	.	8a/	8cc\
=102-	=102-	=102-	=102-	=102-	=102-	=102-
1EE]	5 #:4#r	1EE]	5 #:4#r	.	4g#X/	1b
.	.	.	.	.	2a/	.
.	.	.	.	.	4g#X/	.
=103-	=103-	=103-	=103-	=103-	=103-	=103-
!LO:N:vis=0	!	!LO:N:vis=0	!	!LO:N:vis=0	!LO:N:vis=0	!LO:N:vis=0
1AA;<	.	1AA;<	.	1AA;	1a;	1a;
==	==	==	==	==	==	==
*-	*-	*-	*-	*-	*-	*-
!!!system-decoration: [(s1,s2)]s3,s4,s5
!!!RDF**kern: > = above
!!!RDF**kern: < = below
!!!ENC: Anastazja Marusiak
!!!END: 2022-11-10
!!!ENC: Jan Barakat
!!!END: 2022-11-30
!!!YEC: Copyright 2022 Narodowy Instytut Fryderyka Chopina (https://polishscores.org)
!!!YEM: License CC-BY-4.0 (https://creativecommons.org/licenses/by/4.0)
